X: 205
T: Guan hua
%%abc-version 2.0
%%abcx-abcm2ps-target-version 5.9.1 (29 Sep 2008)
%%abc-creator hum2abc beta
%%abcx-conversion-date 2013/10/02 07:52:29
%%abc-edited-by Helmut Schaffrath
%%humdrum-veritas 124926616
%%humdrum-veritas-data 3763374500
%%continueall 1
%%barnumbers 0
L: 1/16
M: 3/8
K: G
e g2< c2 B [I:setbarnb 1]| 
e g2< c2 B | 
A BA4 | 
e g2< c2 B | 
e g2< c2 B | 
A BA4 | 
d2 d2 A B | 
g2> B2 A c | 
g2> B2 A c | 
F2> E2 D E | 
D4z2 |]  



